X: 38198
T: Spring In The Bog
R: slide
M: 12/8
K: Gmajor
|:(3Bde|g2 d ded B2 G GBG|ABA DFA G3 def|
g2 d ded B2 G GBG|ABA DFA G2 G2:|
|:(3Bde|ded e2 d b2 a bgf|aba e2 f g3 edB|
d2 g gfg b3 bag|aba e2 f g2 g2:|

